symbols/web/settings_voice/materialsymbolsoutlined/settings_voice_wght200gradN25_48px.svg

<svg xmlns="http://www.w3.org/2000/svg" height="48" width="48"><path d="M15.85 47.5q-.5 0-.9-.375t-.4-.925q0-.55.4-.925t.9-.375q.55 0 .925.4t.375.9q0 .55-.375.925t-.925.375Zm8.15 0q-.55 0-.925-.375T22.7 46.2q0-.55.4-.925t.9-.375q.55 0 .925.4t.375.9q0 .55-.375.925T24 47.5Zm8.15 0q-.55 0-.925-.375t-.375-.925q0-.55.375-.925t.925-.375q.55 0 .925.4t.375.9q0 .55-.4.925t-.9.375ZM24 25.45q-1.55 0-2.525-1.05-.975-1.05-.975-2.6V9.55q0-1.45 1-2.475 1-1.025 2.5-1.025t2.5 1.025q1 1.025 1 2.475V21.8q0 1.55-.975 2.6T24 25.45Zm0-9.7Zm-.75 25.2V33.7q-4.7-.4-7.95-3.8t-3.25-8.1h1.5q0 4.3 3.05 7.325 3.05 3.025 7.4 3.025 4.3 0 7.375-3.025T34.45 21.8h1.5q0 4.7-3.25 8.1-3.25 3.4-7.9 3.8v7.25Zm.75-17q.85 0 1.425-.625Q26 22.7 26 21.8V9.6q0-.85-.575-1.425Q24.85 7.6 24 7.6q-.85 0-1.425.575Q22 8.75 22 9.55v12.2q0 .95.575 1.575T24 23.95Z"/></svg>

<svg xmlns="http://www.w3.org/2000/svg" height="48" width="48"><path d="M15.85 47.5Q15.35 47.5 14.95 47.125Q14.55 46.75 14.55 46.2Q14.55 45.65 14.95 45.275Q15.35 44.9 15.85 44.9Q16.4 44.9 16.775 45.3Q17.15 45.7 17.15 46.2Q17.15 46.75 16.775 47.125Q16.4 47.5 15.85 47.5ZM24 47.5Q23.45 47.5 23.075 47.125Q22.7 46.75 22.7 46.2Q22.7 45.65 23.1 45.275Q23.5 44.9 24 44.9Q24.55 44.9 24.925 45.3Q25.3 45.7 25.3 46.2Q25.3 46.75 24.925 47.125Q24.55 47.5 24 47.5ZM32.15 47.5Q31.6 47.5 31.225 47.125Q30.85 46.75 30.85 46.2Q30.85 45.65 31.225 45.275Q31.6 44.9 32.15 44.9Q32.7 44.9 33.075 45.3Q33.45 45.7 33.45 46.2Q33.45 46.75 33.05 47.125Q32.65 47.5 32.15 47.5ZM24 25.45Q22.45 25.45 21.475 24.4Q20.5 23.35 20.5 21.8V9.55Q20.5 8.1 21.5 7.075Q22.5 6.05 24 6.05Q25.5 6.05 26.5 7.075Q27.5 8.1 27.5 9.55V21.8Q27.5 23.35 26.525 24.4Q25.55 25.45 24 25.45ZM24 15.75Q24 15.75 24 15.75Q24 15.75 24 15.75Q24 15.75 24 15.75Q24 15.75 24 15.75Q24 15.75 24 15.75Q24 15.75 24 15.75Q24 15.75 24 15.75Q24 15.75 24 15.75ZM23.25 40.95V33.7Q18.55 33.3 15.3 29.9Q12.05 26.5 12.05 21.8H13.55Q13.55 26.1 16.6 29.125Q19.65 32.15 24 32.15Q28.3 32.15 31.375 29.125Q34.45 26.1 34.45 21.8H35.95Q35.95 26.5 32.7 29.9Q29.45 33.3 24.8 33.7V40.95ZM24 23.95Q24.85 23.95 25.425 23.325Q26 22.7 26 21.8V9.6Q26 8.75 25.425 8.175Q24.85 7.6 24 7.6Q23.15 7.6 22.575 8.175Q22 8.75 22 9.55V21.75Q22 22.7 22.575 23.325Q23.15 23.95 24 23.95Z"/></svg>
